!!!!SEGMENT: pl-kozmzk--mzk-m-346--045_walczynski-franciszek--cantantibus-organis-largo.krn
!!!cenid: 18xx:2840
!!!COM: Walczyński, Franciszek
!!!COM-rismid: pe30021989
!!!CDT: ~1852-1937
!!!CNT: Polish
!!!GTL: Cantantibus organis op. 10
!!!OTL: 45. Largo
!!!PDT: 1898
!!!AGN: Secular
!!!SMS-siglum: PL-KOZmzk
!!!SMS-shelfmark: mzk/m/346
!!!SMS-shelfwork: 045 G
!!!SMS-variant:
!!!SMS-altvar:
!!!NIFC-rismid: 1001109610
!!!URL-scan: https://repozytorium.nifc.pl/islandora/object/pl-kozmzk%3A7453/datastream/PDF/view
!!!ONB-nifc:
**kern	**kern	**dynam
*part1	*part1	*part1
*staff2	*staff1	*
*Iorgan	*Iorgan	*
*I"[Organo]	*I"[Organo]	*
*clefF4	*clefG2	*
*k[b-e-]	*k[b-e-]	*
*c:	*c:	*
*M2/4	*M2/4	*
=1	=1	=1
*^	*^	*
!	!	!LO:TX:a:t=Largo.	!	!LO:DY:b=2
2r	8G\L	2r	2re	p
.	8D\	.	.	.
.	8G\	.	.	.
.	16A\L	.	.	.
.	16B-\JJ	.	.	.
=2	=2	=2	=2	=2
2r	4G^<\	2r	2re	.
.	4F^<\	.	.	.
=3	=3	=3	=3	=3
8c/L	(<4.E-\	2r	2re	.
8G/	.	.	.	.
8c/	.	.	.	.
(>16d/L	8D\	.	.	.
16e-/JJ)	.	.	.	.
=4	=4	=4	=4	=4
4c^/	4C\	2r	2re	.
4B-^/	4D\)	.	.	.
=5	=5	=5	=5	=5
(>8A/L	(<2C#X\	2r	2re	.
8B-/	.	.	.	.
8A/	.	.	.	.
8G/J	.	.	.	.
=6	=6	=6	=6	=6
2F#X/)	8D\L	2r	2re	.
.	8E-\	.	.	.
.	8D\	.	.	.
.	8Cn\J)	.	.	.
=7	=7	=7	=7	=7
!	!	!	!	!LO:DY:b
(>4.G/	(<4.BB-\	2r	8g\L	f
.	.	.	8d\	.
.	.	.	8g\	.
8F#X/	16D\LL	.	(<16a\L	.
.	16C\JJ	.	16b-\JJ)	.
=8	=8	=8	=8	=8
2G/)	8BBn\L	2r	4g^<\	.
.	8GG\	.	.	.
.	8AA\	.	4f^<\	.
.	8BB\J)	.	.	.
=9	=9	=9	=9	=9
!	!	!	!	!LO:DY:a
[>2G/	(<[<2C\	8cc/L	[<2e-\	f
.	.	8g/	.	.
.	.	8cc/	.	.
.	.	(>16dd/L	.	.
.	.	16ee-/JJ)	.	.
!!LO:LB:g=original
=10	=10	=10	=10	=10
4G/]	4C\]	4cc^>/	4e-\]	.
4en/	4C#X\)	4b-^>/	4g\	.
=11	=11	=11	=11	=11
!	!	!	!	!LO:DY:b
*ped	*	*	*	*
4e-/	2D\	(>8dd/L	(<8b-\L	p
.	.	8b-/	8g\	.
8c/L	.	8a/	8f#X\	.
8B-/J	.	8g/J	[<8d\J	.
=12	=12	=12	=12	=12
2A/	2DD\	2f#X/)	8d\L]	.
.	.	.	8e-\	.
.	.	.	8d\	.
.	.	.	8c\J)	.
=13	=13	=13	=13	=13
!	!	!	!	!LO:DY:a
!	!	!	!	!LO:HP:a
8G/L	[<2GG\	[>2g/	(<4.B-\	pp <
8D/	.	.	.	.
8G/	.	.	.	.
16A/L	.	.	16c\LL	.
16B-/JJ	.	.	16d\JJ	[[
=14	=14	=14	=14	=14
!	!	!	!	!LO:HP:a
8G/L	2GG\]	2g/]	8B-\L	>
8E-/J	.	.	8c\J	.
4D/	.	.	4B-\)	]
=15	=15	=15	=15	=15
!	!	!LO:TX:a:t=Grave.	!	!LO:DY:b=2:rj
2r	(<8GG\L	2r	2re	p
.	8DD\	.	.	.
.	8GG\	.	.	.
.	16AA\L	.	.	.
.	16BB-\JJ	.	.	.
=16	=16	=16	=16	=16
2r	4GG^<\	2r	2re	.
.	4FF^<\)	.	.	.
*	*	*v	*v	*
=17	=17	=17	=17
!	!	!	!LO:DY:b
(>[>2G/	(<4EE-\ 4E-	(>4c^</	fp
.	4GG\ 4D	4B-^</	.
=18	=18	=18	=18
!LO:TX:b:i:t=rit. molto.	!	!	!LO:DY:b
8G/L]	4CC\) 4E-	4e-^>/	pp
8A/J	.	.	.
4Bn/)	4GG;<\ 4G	4d;>/)	.
*v	*v	*	*
==	==	==
*-	*-	*-
!!!system-decoration: {(s1,s2)}
!!!RDF**kern: > = above
!!!RDF**kern: < = below
!!!EED: Antoni Szymański
!!!EST: 2021-08-09
!!!ENC: Anastazja Marusiak
!!!END: 2021-07-28
